SharedCollection/src/main/webapp/images/templateimg/imgFont/trash3-fill.svg

<?xml version="1.0" encoding="UTF-8"?>
<!-- Generated by Pixelmator Pro 3.0.1 -->
<svg width="16" height="16" viewBox="0 0 16 16" xmlns="http://www.w3.org/2000/svg" xmlns:xlink="http://www.w3.org/1999/xlink">
    <path id="Percorso" fill="#ffffff" stroke="none" d="M 11 1.5 L 11 2.5 L 14.5 2.5 C 14.776142 2.5 15 2.723858 15 3 C 15 3.276142 14.776142 3.5 14.5 3.5 L 13.962 3.5 L 13.109 14.16 C 13.025585 15.199341 12.157682 16.000214 11.115 16 L 4.885 16 C 3.842317 16.000214 2.974415 15.199341 2.891 14.16 L 2.038 3.5 L 1.5 3.5 C 1.223858 3.5 1 3.276142 1 3 C 1 2.723858 1.223858 2.5 1.5 2.5 L 5 2.5 L 5 1.5 C 5 0.671573 5.671573 0 6.5 0 L 9.5 0 C 10.328427 0 11 0.671573 11 1.5 Z M 6 1.5 L 6 2.5 L 10 2.5 L 10 1.5 C 10 1.223858 9.776142 1 9.5 1 L 6.5 1 C 6.223857 1 6 1.223858 6 1.5 Z M 4.5 5.028999 L 5 13.529 C 5.007265 13.709859 5.111709 13.87267 5.273072 13.954675 C 5.434435 14.036678 5.627518 14.02507 5.777894 13.924324 C 5.92827 13.823578 6.012456 13.649426 5.998 13.469 L 5.498 4.969 C 5.490735 4.788141 5.386292 4.62533 5.224928 4.543325 C 5.063565 4.461321 4.870482 4.472929 4.720106 4.573675 C 4.56973 4.674421 4.485544 4.848574 4.5 5.028999 Z M 11.03 4.500999 C 10.754441 4.485073 10.518102 4.695452 10.502 4.971001 L 10.002 13.471 C 9.993075 13.742099 10.201931 13.970872 10.47272 13.986609 C 10.743509 14.002346 10.97746 13.799308 11 13.529 L 11.5 5.028999 C 11.515927 4.753441 11.305549 4.517101 11.03 4.500999 Z M 8 4.5 C 7.723857 4.5 7.5 4.723858 7.5 5 L 7.5 13.5 C 7.5 13.776142 7.723857 14 8 14 C 8.276142 14 8.5 13.776142 8.5 13.5 L 8.5 5 C 8.5 4.723858 8.276142 4.5 8 4.5 Z"/>
</svg>

<svg xmlns="http://www.w3.org/2000/svg" width="16" height="16" fill="currentColor" class="bi bi-trash3-fill" viewBox="0 0 16 16">
  <path d="M11 1.5v1h3.5a.5.5 0 0 1 0 1h-.538l-.853 10.66A2 2 0 0 1 11.115 16h-6.23a2 2 0 0 1-1.994-1.84L2.038 3.5H1.5a.5.5 0 0 1 0-1H5v-1A1.5 1.5 0 0 1 6.5 0h3A1.5 1.5 0 0 1 11 1.5Zm-5 0v1h4v-1a.5.5 0 0 0-.5-.5h-3a.5.5 0 0 0-.5.5ZM4.5 5.029l.5 8.5a.5.5 0 1 0 .998-.06l-.5-8.5a.5.5 0 1 0-.998.06Zm6.53-.528a.5.5 0 0 0-.528.47l-.5 8.5a.5.5 0 0 0 .998.058l.5-8.5a.5.5 0 0 0-.47-.528ZM8 4.5a.5.5 0 0 0-.5.5v8.5a.5.5 0 0 0 1 0V5a.5.5 0 0 0-.5-.5Z"/>
</svg>
